icons/aws-codedeploy.svg

<svg xmlns="http://www.w3.org/2000/svg" viewBox="0 0 256 309.262">
  <path fill="#4b612c" d="M36.08 262.013 0 244.832V64l36.08-18.04.131.187.24 215.501-.371.365"/>
  <path fill="#759c3e" d="M168.376 226.362 36.08 262.013V45.96l132.296 36.08v144.322"/>
  <path fill="#4b612c" d="m59.705 124.134 68.295-8.59 1.667 1.456v73.333L128 192.859l-68.295-8.161v-60.564"/>
  <path fill="#3c4929" d="m256 109.53-62.282 6.443L59.705 94.497 127.167 72.5 256 109.53"/>
  <path fill="#b7ca9d" d="m256 199.731-62.282-6.442-134.013 21.476 72.462 18.402L256 199.731"/>
  <path fill="#4b612c" d="M59.705 274.899 128 309.262l2.887-76.568-71.182-17.929v60.134"/>
  <path fill="#759c3e" d="m256 245.262-128 64v-77.316l128-32.215v45.531"/>
  <path fill="#4b612c" d="M59.705 33.933 128 0l.495.698-.21 76.146-.285.471-68.295 17.182V33.933"/>
  <path fill="#759c3e" d="m256 176.966-128 15.893v-77.315l128 16.322v45.1M256 109.53 128 77.315V0l128 64v45.53"/>
</svg>

<?xml version="1.0" encoding="UTF-8" standalone="no"?>
<svg width="256px" height="310px" viewBox="0 0 256 310" version="1.1" xmlns="http://www.w3.org/2000/svg" xmlns:xlink="http://www.w3.org/1999/xlink" preserveAspectRatio="xMidYMid">
	<g>
		<path d="M36.08,262.013 L0,244.832 L0,64 L36.08,45.96 L36.211,46.147 L36.451,261.648 L36.08,262.013" fill="#4B612C"></path>
		<path d="M168.376,226.362 L36.08,262.013 L36.08,45.96 L168.376,82.04 L168.376,226.362" fill="#759C3E"></path>
		<path d="M59.705,124.134 L128,115.544 L129.667,117 L129.667,190.333 L128,192.859 L59.705,184.698 L59.705,124.134" fill="#4B612C"></path>
		<path d="M256,109.53 L193.718,115.973 L59.705,94.497 L127.167,72.5 L256,109.53" fill="#3C4929"></path>
		<path d="M256,199.731 L193.718,193.289 L59.705,214.765 L132.167,233.167 L256,199.731" fill="#B7CA9D"></path>
		<path d="M59.705,274.899 L128,309.262 L130.887,232.694 L59.705,214.765 L59.705,274.899" fill="#4B612C"></path>
		<path d="M256,245.262 L128,309.262 L128,231.946 L256,199.731 L256,245.262" fill="#759C3E"></path>
		<path d="M59.705,33.933 L128,0 L128.495,0.698 L128.285,76.844 L128,77.315 L59.705,94.497 L59.705,33.933" fill="#4B612C"></path>
		<path d="M256,176.966 L128,192.859 L128,115.544 L256,131.866 L256,176.966" fill="#759C3E"></path>
		<path d="M256,109.53 L128,77.315 L128,0 L256,64 L256,109.53" fill="#759C3E"></path>
	</g>
</svg>
